img/close.svg

<svg width="21" height="20" viewBox="0 0 21 20" fill="none" xmlns="http://www.w3.org/2000/svg">
<path fill-rule="evenodd" clip-rule="evenodd" d="M10.6777 10.6777L19.5165 19.5165L20.9307 18.1023L12.0919 9.26352L19.5165 1.83893L18.1023 0.424719L10.6777 7.84931L3.25308 0.424654L1.83887 1.83887L9.26352 9.26352L0.424653 18.1024L1.83887 19.5166L10.6777 10.6777Z" fill="black"/>
</svg>

<svg width="21" height="20" fill="none" xmlns="http://www.w3.org/2000/svg"><path fill-rule="evenodd" clip-rule="evenodd" d="M10.678 10.678l8.838 8.838 1.415-1.414-8.84-8.838 7.426-7.425L18.102.425l-7.424 7.424L3.253.425 1.84 1.839l7.425 7.425-8.84 8.838 1.415 1.415 8.839-8.84z" fill="#000"/></svg>
